!!!OTL: Der schwatzhafte Junggeselle Sont trois jolis garcons; s'en vont a la prom'nade.
!!!ARE: Europa, Mitteleuropa, France, Savoie
!!!YOR: 6, S. 312
!!    1910 gedruckt in Paris
!!!SCT: Q2139P
!!!YEM: Copyright 1995, estate of Helmut Schaffrath.
**kern
*ICvox
*Ivox
*M2/4
*k[f#]
*G:
{8d
=1
8.g
16f#
8g
8a
=2
4.b
8a
=3
8.dd
16cc
8b
8a
=4
4a
8g}
{8d
=5
8.g
16f#
8g
8a
=6
4.b
8a
=7
8.dd
16cc
8b
8a
=8
4a
8g}
{8dd
=9
4dd
8dd
8cc
=10
4.b
8b
=11
8dd
8dd
8cc
8b
=12
4a
8r}
{8d
=13
8.g
16f#
8g
8a
=14
8b
8b
4cc
=15
8.b
16cc
8.b
16a
=16
4.g}
==
!!!AGN: Ballade, Indiskretion, verweigerter Beischlaf
!! Franzoesische Fassung der Ballade. Zweistimmig notiert, Unter- bzw.
!!    Mittelstimme kodiert. Notenwert in der letzten Zeile rhythmisch
!!    korrigiert.
!!!ONB: ESAC (Essen Associative Code) Database: BALLADE
!!!AMT: simple duple
!!!AIN: vox
!!!EED: Helmut Schaffrath
!!!EEV: 1.0
*-
